X: 0612
M: 2/2
L: 1/8
K: D
d2f2 f2ef | g>f e>d c>B A>G | FAdA BAGF | EFGE dcBA |\
d2f2 f2ef | g>f e>d c>B A>G | FAdA BGFE | F2D2 D2 :|
a>g |\
(3fga ce dfeg | (3fga ce dfeg | fad'a bagf | efge dcBA |\
(3fga ce dfeg | (3fga ce dfeg | fad'a bgfe | d2f2 d2 :|

